icons/preferences/preferences-security.svg

<?xml version="1.0" encoding="UTF-8" standalone="no"?>
<!-- Created with Sodipodi ("http://www.sodipodi.com/") -->

<svg
   xmlns:dc="http://purl.org/dc/elements/1.1/"
   xmlns:cc="http://creativecommons.org/ns#"
   xmlns:rdf="http://www.w3.org/1999/02/22-rdf-syntax-ns#"
   xmlns:svg="http://www.w3.org/2000/svg"
   xmlns="http://www.w3.org/2000/svg"
   xmlns:xlink="http://www.w3.org/1999/xlink"
   xmlns:sodipodi="http://sodipodi.sourceforge.net/DTD/sodipodi-0.dtd"
   xmlns:inkscape="http://www.inkscape.org/namespaces/inkscape"
   id="svg590"
   sodipodi:version="0.32"
   width="60"
   height="60"
   sodipodi:docname="retrosmart-lock-wide-close.svg"
   inkscape:version="0.91 r13725"
   version="1.0">
  <metadata
     id="metadata47">
    <rdf:RDF>
      <cc:Work
         rdf:about="">
        <dc:format>image/svg+xml</dc:format>
        <dc:type
           rdf:resource="http://purl.org/dc/dcmitype/StillImage" />
        <dc:title></dc:title>
      </cc:Work>
    </rdf:RDF>
  </metadata>
  <defs
     id="defs592">
    <inkscape:perspective
       sodipodi:type="inkscape:persp3d"
       inkscape:vp_x="0 : 30 : 1"
       inkscape:vp_y="0 : 1000 : 0"
       inkscape:vp_z="60 : 30 : 1"
       inkscape:persp3d-origin="30 : 20 : 1"
       id="perspective90" />
    <linearGradient
       id="aigrd5"
       gradientUnits="userSpaceOnUse"
       x1="16.387199"
       y1="28.735399"
       x2="32.099201"
       y2="28.735399">
      <stop
         offset="0"
         style="stop-color:#F6EDC8"
         id="stop1408" />
      <stop
         offset="1.444304e-002"
         style="stop-color:#F3EAC0"
         id="stop1410" />
      <stop
         offset="7.716820e-002"
         style="stop-color:#E8DEA3"
         id="stop1412" />
      <stop
         offset="0.1471"
         style="stop-color:#E1D48F"
         id="stop1414" />
      <stop
         offset="0.2271"
         style="stop-color:#DACD81"
         id="stop1416" />
      <stop
         offset="0.3259"
         style="stop-color:#D7CA78"
         id="stop1418" />
      <stop
         offset="0.5"
         style="stop-color:#D6C876"
         id="stop1420" />
      <stop
         offset="0.7061"
         style="stop-color:#D3C575"
         id="stop1422" />
      <stop
         offset="0.7987"
         style="stop-color:#CABE70"
         id="stop1424" />
      <stop
         offset="0.8686"
         style="stop-color:#BAAF67"
         id="stop1426" />
      <stop
         offset="0.9271"
         style="stop-color:#A49B5C"
         id="stop1428" />
      <stop
         offset="0.9779"
         style="stop-color:#8A844E"
         id="stop1430" />
      <stop
         offset="1"
         style="stop-color:#7D7746"
         id="stop1432" />
    </linearGradient>
    <radialGradient
       inkscape:collect="always"
       xlink:href="#XMLID_1_"
       id="radialGradient2955"
       gradientUnits="userSpaceOnUse"
       cx="88.666496"
       cy="118.243"
       fx="88.666496"
       fy="118.243"
       r="56.1092" />
    <radialGradient
       inkscape:collect="always"
       xlink:href="#XMLID_2_"
       id="radialGradient2957"
       gradientUnits="userSpaceOnUse"
       cx="34.226601"
       cy="118.243"
       fx="34.226601"
       fy="118.243"
       r="56.108299" />
    <radialGradient
       inkscape:collect="always"
       xlink:href="#XMLID_3_"
       id="radialGradient2959"
       gradientUnits="userSpaceOnUse"
       cx="90.745598"
       cy="135.49699"
       fx="90.745598"
       fy="135.49699"
       r="49.494999" />
    <radialGradient
       inkscape:collect="always"
       xlink:href="#XMLID_4_"
       id="radialGradient2961"
       gradientUnits="userSpaceOnUse"
       cx="36.6133"
       cy="135.49699"
       fx="36.6133"
       fy="135.49699"
       r="49.497002" />
    <linearGradient
       inkscape:collect="always"
       xlink:href="#XMLID_5_"
       id="linearGradient2963"
       gradientUnits="userSpaceOnUse"
       x1="86.518997"
       y1="13.7202"
       x2="86.518997"
       y2="77.272499" />
    <linearGradient
       inkscape:collect="always"
       xlink:href="#XMLID_6_"
       id="linearGradient2965"
       gradientUnits="userSpaceOnUse"
       x1="34.505901"
       y1="-5.8379002"
       x2="34.505901"
       y2="40.414001" />
    <radialGradient
       inkscape:collect="always"
       xlink:href="#XMLID_1_"
       id="radialGradient3776"
       gradientUnits="userSpaceOnUse"
       cx="88.666496"
       cy="118.243"
       fx="88.666496"
       fy="118.243"
       r="56.1092" />
    <radialGradient
       inkscape:collect="always"
       xlink:href="#XMLID_2_"
       id="radialGradient3778"
       gradientUnits="userSpaceOnUse"
       cx="34.226601"
       cy="118.243"
       fx="34.226601"
       fy="118.243"
       r="56.108299" />
    <radialGradient
       inkscape:collect="always"
       xlink:href="#XMLID_3_"
       id="radialGradient3780"
       gradientUnits="userSpaceOnUse"
       cx="90.745598"
       cy="135.49699"
       fx="90.745598"
       fy="135.49699"
       r="49.494999" />
    <radialGradient
       inkscape:collect="always"
       xlink:href="#XMLID_4_"
       id="radialGradient3782"
       gradientUnits="userSpaceOnUse"
       cx="36.6133"
       cy="135.49699"
       fx="36.6133"
       fy="135.49699"
       r="49.497002" />
    <linearGradient
       inkscape:collect="always"
       xlink:href="#XMLID_5_"
       id="linearGradient3784"
       gradientUnits="userSpaceOnUse"
       x1="86.518997"
       y1="13.7202"
       x2="86.518997"
       y2="77.272499" />
    <linearGradient
       inkscape:collect="always"
       xlink:href="#XMLID_6_"
       id="linearGradient3786"
       gradientUnits="userSpaceOnUse"
       x1="34.505901"
       y1="-5.8379002"
       x2="34.505901"
       y2="40.414001" />
    <radialGradient
       gradientUnits="userSpaceOnUse"
       fy="118.243"
       fx="88.666496"
       r="56.1092"
       cy="118.243"
       cx="88.666496"
       id="XMLID_1_">
      <stop
         id="stop630"
         style="stop-color:rgb(242,0,0)"
         offset="0" />
      <stop
         id="stop631"
         style="stop-color:rgb(141,0,0)"
         offset="1" />
      <midPointStop
         id="midPointStop632"
         style="stop-color:#F20000"
         offset="0" />
      <midPointStop
         id="midPointStop633"
         style="stop-color:#F20000"
         offset="0.5" />
      <midPointStop
         id="midPointStop634"
         style="stop-color:#8D0000"
         offset="1" />
    </radialGradient>
    <radialGradient
       gradientUnits="userSpaceOnUse"
       fy="118.243"
       fx="34.226601"
       r="56.108299"
       cy="118.243"
       cx="34.226601"
       id="XMLID_2_">
      <stop
         id="stop637"
         style="stop-color:rgb(242,0,0)"
         offset="0" />
      <stop
         id="stop638"
         style="stop-color:rgb(141,0,0)"
         offset="1" />
      <midPointStop
         id="midPointStop639"
         style="stop-color:#F20000"
         offset="0" />
      <midPointStop
         id="midPointStop640"
         style="stop-color:#F20000"
         offset="0.5" />
      <midPointStop
         id="midPointStop641"
         style="stop-color:#8D0000"
         offset="1" />
    </radialGradient>
    <radialGradient
       gradientUnits="userSpaceOnUse"
       fy="135.49699"
       fx="90.745598"
       r="49.494999"
       cy="135.49699"
       cx="90.745598"
       id="XMLID_3_">
      <stop
         id="stop644"
         style="stop-color:rgb(255,255,255)"
         offset="0" />
      <stop
         id="stop645"
         style="stop-color:rgb(224,0,0)"
         offset="1" />
      <midPointStop
         id="midPointStop646"
         style="stop-color:#FFFFFF"
         offset="0" />
      <midPointStop
         id="midPointStop647"
         style="stop-color:#FFFFFF"
         offset="0.5" />
      <midPointStop
         id="midPointStop648"
         style="stop-color:#E00000"
         offset="1" />
    </radialGradient>
    <radialGradient
       gradientUnits="userSpaceOnUse"
       fy="135.49699"
       fx="36.6133"
       r="49.497002"
       cy="135.49699"
       cx="36.6133"
       id="XMLID_4_">
      <stop
         id="stop651"
         style="stop-color:rgb(255,255,255)"
         offset="0" />
      <stop
         id="stop652"
         style="stop-color:rgb(224,0,0)"
         offset="1" />
      <midPointStop
         id="midPointStop653"
         style="stop-color:#FFFFFF"
         offset="0" />
      <midPointStop
         id="midPointStop654"
         style="stop-color:#FFFFFF"
         offset="0.5" />
      <midPointStop
         id="midPointStop655"
         style="stop-color:#E00000"
         offset="1" />
    </radialGradient>
    <linearGradient
       y2="77.272499"
       x2="86.518997"
       y1="13.7202"
       x1="86.518997"
       gradientUnits="userSpaceOnUse"
       id="XMLID_5_">
      <stop
         id="stop658"
         style="stop-color:rgb(255,255,255)"
         offset="9.1954%" />
      <stop
         id="stop659"
         style="stop-opacity:0;stop-color:rgb(255,255,255)"
         offset="100%" />
    </linearGradient>
    <linearGradient
       y2="40.414001"
       x2="34.505901"
       y1="-5.8379002"
       x1="34.505901"
       gradientUnits="userSpaceOnUse"
       id="XMLID_6_">
      <stop
         id="stop662"
         style="stop-color:rgb(255,255,255)"
         offset="0%" />
      <stop
         id="stop663"
         style="stop-opacity:0;stop-color:rgb(255,255,255)"
         offset="100%" />
    </linearGradient>
    <linearGradient
       inkscape:collect="always"
       xlink:href="#linearGradient2536"
       id="linearGradient2550"
       gradientUnits="userSpaceOnUse"
       x1="14"
       y1="-0.35543776"
       x2="47.326374"
       y2="14.613756" />
    <linearGradient
       y2="-6"
       x2="46"
       y1="-6"
       x1="18"
       gradientUnits="userSpaceOnUse"
       id="linearGradient2536">
      <stop
         id="stop2485"
         stop-color="#fff8ea"
         offset="0" />
      <stop
         id="stop2487"
         stop-color="#f5de63"
         offset="1" />
    </linearGradient>
    <linearGradient
       inkscape:collect="always"
       xlink:href="#linearGradient2523"
       id="linearGradient2552"
       gradientUnits="userSpaceOnUse"
       x1="42"
       y1="13.162473"
       x2="52.437153"
       y2="22.648006" />
    <linearGradient
       y2="12.92"
       x2="58.709999"
       y1="10.16"
       x1="42.830002"
       gradientUnits="userSpaceOnUse"
       id="linearGradient2523">
      <stop
         id="stop2465"
         stop-color="#9e8707"
         offset="0.1847" />
      <stop
         id="stop2467"
         stop-color="#b59e04"
         offset="1" />
      <stop
         id="stop2469"
         stop-color="#eec740"
         offset="1" />
    </linearGradient>
    <linearGradient
       inkscape:collect="always"
       xlink:href="#linearGradient2529"
       id="linearGradient2554"
       gradientUnits="userSpaceOnUse"
       x1="24"
       y1="16.82407"
       x2="50.159897"
       y2="17.498665" />
    <linearGradient
       y2="15.75"
       x2="45.75"
       y1="15.75"
       x1="26.25"
       gradientUnits="userSpaceOnUse"
       id="linearGradient2529">
      <stop
         id="stop2474"
         stop-color="#f6e156"
         offset="0.3695" />
      <stop
         id="stop2476"
         stop-color="#c9a514"
         offset="0.5833" />
      <stop
         id="stop2478"
         stop-color="#f7e35d"
         offset="1" />
      <stop
         id="stop2480"
         stop-color="#c9a515"
         offset="0" />
    </linearGradient>
    <linearGradient
       inkscape:collect="always"
       xlink:href="#linearGradient2536"
       id="linearGradient2556"
       gradientUnits="userSpaceOnUse"
       x1="17.583677"
       y1="1.0832796"
       x2="44.672943"
       y2="2.2373953" />
    <radialGradient
       inkscape:collect="always"
       xlink:href="#radialGradient2544"
       id="radialGradient3221"
       cx="30.016529"
       cy="18.410326"
       fx="30.016529"
       fy="18.410326"
       r="8.0165291"
       gradientTransform="matrix(1.8601945,-0.5098981,0.9688589,5.5505382,-43.657062,-68.47152)"
       gradientUnits="userSpaceOnUse" />
    <radialGradient
       gradientTransform="matrix(0.2161,-0.0247,0.0534,0.4665,30.2118,22.626)"
       r="64"
       cy="0"
       cx="0"
       gradientUnits="userSpaceOnUse"
       id="radialGradient2544">
      <stop
         id="stop2498"
         stop-color="#bebebe"
         offset="0.2971" />
      <stop
         id="stop2500"
         stop-color="#ffffff"
         offset="0.6014" />
      <stop
         id="stop2502"
         stop-color="#767676"
         offset="0.3949" />
    </radialGradient>
  </defs>
  <sodipodi:namedview
     id="base"
     inkscape:zoom="8.7666667"
     inkscape:cx="30"
     inkscape:cy="30"
     inkscape:window-width="1029"
     inkscape:window-height="915"
     inkscape:window-x="873"
     inkscape:window-y="118"
     inkscape:current-layer="svg590"
     showgrid="false"
     inkscape:window-maximized="0" />
  <g
     id="g2449"
     transform="matrix(1.2272127,0,0,0.97930952,-8.1502898,-3.132142)">
    <path
       inkscape:connector-curvature="0"
       id="path2453"
       d="m 14,50 c 0,0 5,3 11,6 6,3 13,6 13,6 l 8,-8 0,-24 C 46,30 38.81,27.27 32,25 27.15,23.38 22,22 22,22 l -8,4 0,24 z"
       style="fill:none;stroke:#000000;stroke-width:4;stroke-linejoin:round" />
    <linearGradient
       y2="12.16"
       x2="45.959999"
       y1="5.4000001"
       x1="11.12"
       gradientUnits="userSpaceOnUse"
       id="linearGradient2517">
      <stop
         id="stop2456"
         stop-color="#fffbcc"
         offset="0" />
      <stop
         id="stop2458"
         stop-color="#f3d048"
         offset="1" />
      <stop
         id="stop2460"
         stop-color="#d1af27"
         offset="0.7572" />
    </linearGradient>
    <path
       inkscape:connector-curvature="0"
       id="path2462"
       d="m 14,50 c 0,0 5,3 11,6 6,3 13,6 13,6 L 38,36 C 38,36 31,33.5 25,31 19,28.5 14,26 14,26 l 0,24 z"
       style="fill:url(#linearGradient2550);fill-opacity:1" />
    <linearGradient
       y2="12.92"
       x2="58.709999"
       y1="10.16"
       x1="42.830002"
       gradientUnits="userSpaceOnUse"
       id="linearGradient7573">
      <stop
         id="stop7575"
         stop-color="#9e8707"
         offset="0.1847" />
      <stop
         id="stop7577"
         stop-color="#b59e04"
         offset="1" />
      <stop
         id="stop7579"
         stop-color="#eec740"
         offset="1" />
    </linearGradient>
    <path
       inkscape:connector-curvature="0"
       id="path2471"
       d="m 38,62 8,-8 0,-24 -8,6 0,26 z"
       style="fill:url(#linearGradient2552);fill-opacity:1" />
    <linearGradient
       y2="15.75"
       x2="45.75"
       y1="15.75"
       x1="26.25"
       gradientUnits="userSpaceOnUse"
       id="linearGradient7582">
      <stop
         id="stop7584"
         stop-color="#f6e156"
         offset="0.3695" />
      <stop
         id="stop7586"
         stop-color="#c9a514"
         offset="0.5833" />
      <stop
         id="stop7588"
         stop-color="#f7e35d"
         offset="1" />
      <stop
         id="stop7590"
         stop-color="#c9a515"
         offset="0" />
    </linearGradient>
    <path
       inkscape:connector-curvature="0"
       id="path2482"
       d="m 24,28 12,0 0,5 6,0 4,-3 C 46,30 34.88,25.96 32,25 30.97,24.65 29.92,24.32 28.91,24.01 L 26,24 24,28 Z"
       style="fill:url(#linearGradient2554);fill-opacity:1" />
    <linearGradient
       y2="-6"
       x2="46"
       y1="-6"
       x1="18"
       gradientUnits="userSpaceOnUse"
       id="linearGradient7593">
      <stop
         id="stop7595"
         stop-color="#fff8ea"
         offset="0" />
      <stop
         id="stop7597"
         stop-color="#f5de63"
         offset="1" />
    </linearGradient>
    <path
       inkscape:connector-curvature="0"
       id="path2489"
       d="m 14,26 c 0,0 5,2.5 11,5 6,2.5 13,5 13,5 l 4,-3 -6,0 0,-5 -12,0 2,-4 2.91,0.01 C 25.19,22.85 22,22 22,22 l -8,4 z"
       style="fill:url(#linearGradient2556);fill-opacity:1" />
    <path
       inkscape:connector-curvature="0"
       id="path2491"
       d="m 25,38 c -3,-1 -2,3.43 0,4.43 l -2,6.57 4,2 2,3 -8,-3.75 2,-6.25 c -2,-1 -3,-8 2,-6 z"
       style="fill:#625a02" />
    <path
       inkscape:connector-curvature="0"
       id="path2493"
       d="m 25,38 c 5,2 4,9 2,8 l 2,8 -2,-3 -4,-2 2,-6.57 C 23,41.43 22,37 25,38 Z m -3,-21 0,8 c 0,0.66 0.67,1 2,1 1.32,0 2,-0.34 2,-1 l 0,-6 c 0,-4 0,-10 4,-9 4,1 4,8 4,13 l 0,7 c 0,1 0.98,1.03 2,1 0.97,-0.03 2,0 2,-1 l 0,-5 C 38,20 39,8 30,6 23.45,4.54 22,12 22,17 Z"
       style="fill:#272401" />
    <path
       inkscape:connector-curvature="0"
       id="path2495"
       d="m 22,17 0,8 c 0,0.66 0.67,1 2,1 1.32,0 2,-0.34 2,-1 l 0,-6 c 0,-4 0,-10 4,-9 4,1 4,8 4,13 l 0,7 c 0,1 0.98,1.03 2,1 0.97,-0.03 2,0 2,-1 l 0,-5 C 38,20 39,8 30,6 23.45,4.54 22,12 22,17 Z"
       style="fill:none;stroke:#000000;stroke-width:4;stroke-linecap:round" />
    <radialGradient
       gradientTransform="matrix(0.2161,-0.0247,0.0534,0.4665,30.2118,22.626)"
       r="64"
       cy="0"
       cx="0"
       gradientUnits="userSpaceOnUse"
       id="radialGradient7603">
      <stop
         id="stop7605"
         stop-color="#bebebe"
         offset="0.2971" />
      <stop
         id="stop7607"
         stop-color="#ffffff"
         offset="0.6014" />
      <stop
         id="stop7609"
         stop-color="#767676"
         offset="0.3949" />
    </radialGradient>
    <path
       inkscape:connector-curvature="0"
       id="path2504"
       d="m 22,17 0,8 c 0,0.66 0.67,1 2,1 1.32,0 2,-0.34 2,-1 l 0,-6 c 0,-4 0,-10 4,-9 4,1 4,8 4,13 l 0,7 c 0,1 0.98,1.03 2,1 0.97,-0.03 2,0 2,-1 l 0,-5 C 38,20 39,8 30,6 23.45,4.54 22,12 22,17 Z"
       style="fill:url(#radialGradient3221);fill-opacity:1" />
  </g>
</svg>

<?xml version="1.0" encoding="UTF-8" standalone="yes"?>
<svg version="1.1" width="64" height="64" color-interpolation="linearRGB"
     xmlns:svg="http://www.w3.org/2000/svg" xmlns="http://www.w3.org/2000/svg">
 <g>
  <path style="fill:#010101; fill-opacity:0.4431"
        d="M38 64H48C52 64 60 56 58 54C56 52 46 50 46 50L38 64z"
  />
  <path style="fill:none; stroke:#000000; stroke-width:4; stroke-linejoin:round"
        d="M14 50C14 50 19 53 25 56C31 59 38 62 38 62L46 54V30C46 30 38.81 27.27 32 25C27.15 23.38 22 22 22 22L14 26V50z"
  />
  <linearGradient id="gradient0" gradientUnits="userSpaceOnUse" x1="11.12" y1="5.4" x2="45.96" y2="12.16">
   <stop offset="0" stop-color="#fffbcc"/>
   <stop offset="1" stop-color="#f3d048"/>
   <stop offset="0.7572" stop-color="#d1af27"/>
  </linearGradient>
  <path style="fill:url(#gradient0)"
        d="M14 50C14 50 19 53 25 56C31 59 38 62 38 62V36C38 36 31 33.5 25 31C19 28.5 14 26 14 26V50z"
  />
  <linearGradient id="gradient1" gradientUnits="userSpaceOnUse" x1="42.83" y1="10.16" x2="58.71" y2="12.92">
   <stop offset="0.1847" stop-color="#9e8707"/>
   <stop offset="0" stop-color="#b59e04"/>
   <stop offset="1" stop-color="#eec740"/>
  </linearGradient>
  <path style="fill:url(#gradient1)"
        d="M38 62L46 54V30L38 36V62z"
  />
  <linearGradient id="gradient2" gradientUnits="userSpaceOnUse" x1="26.25" y1="15.75" x2="45.75" y2="15.75">
   <stop offset="0.3695" stop-color="#f6e156"/>
   <stop offset="0.5833" stop-color="#c9a514"/>
   <stop offset="1" stop-color="#f7e35d"/>
   <stop offset="0" stop-color="#c9a515"/>
  </linearGradient>
  <path style="fill:url(#gradient2)"
        d="M24 28H36V33H42L46 30C46 30 34.88 25.96 32 25C30.97 24.65 29.92 24.32 28.91 24.01L26 24L24 28z"
  />
  <linearGradient id="gradient3" gradientUnits="userSpaceOnUse" x1="18" y1="-6" x2="46" y2="-6">
   <stop offset="0" stop-color="#fff8ea"/>
   <stop offset="1" stop-color="#f5de63"/>
  </linearGradient>
  <path style="fill:url(#gradient3)"
        d="M14 26C14 26 19 28.5 25 31C31 33.5 38 36 38 36L42 33H36V28H24L26 24L28.91 24.01C25.19 22.85 22 22 22 22L14 26z"
  />
  <path style="fill:#625a02"
        d="M25 38C22 37 23 41.43 25 42.43L23 49L27 51L29 54L21 50.25L23 44C21 43 20 36 25 38z"
  />
  <path style="fill:#272401"
        d="M25 38C30 40 29 47 27 46L29 54L27 51L23 49L25 42.43C23 41.43 22 37 25 38z
           M22 17V25C22 25.66 22.67 26 24 26C25.32 26 26 25.66 26 25V19C26 15 26 9 30 10C34 11 34 18 34 23V30C34 31 34.98 31.03 36 31C36.97 30.97 38 31 38 30V25C38 20 39 8 30 6C23.45 4.54 22 12 22 17z"
  />
  <path style="fill:none; stroke:#000000; stroke-width:4; stroke-linecap:round"
        d="M22 17V25C22 25.66 22.67 26 24 26C25.32 26 26 25.66 26 25V19C26 15 26 9 30 10C34 11 34 18 34 23V30C34 31 34.98 31.03 36 31C36.97 30.97 38 31 38 30V25C38 20 39 8 30 6C23.45 4.54 22 12 22 17z"
  />
  <radialGradient id="gradient4" gradientUnits="userSpaceOnUse" cx="0" cy="0" r="64" gradientTransform="matrix(0.2161,-0.0247,0.0534,0.4665,30.2118,22.626)">
   <stop offset="0.2971" stop-color="#bebebe"/>
   <stop offset="0.6014" stop-color="#ffffff"/>
   <stop offset="0.3949" stop-color="#767676"/>
  </radialGradient>
  <path style="fill:url(#gradient4)"
        d="M22 17V25C22 25.66 22.67 26 24 26C25.32 26 26 25.66 26 25V19C26 15 26 9 30 10C34 11 34 18 34 23V30C34 31 34.98 31.03 36 31C36.97 30.97 38 31 38 30V25C38 20 39 8 30 6C23.45 4.54 22 12 22 17z"
  />
 </g>
</svg>
